X: 24
T: Drunken-man Dance Song (b)
C: Anon.
%%abc-version 2.0
%%abcx-abcm2ps-target-version 5.9.1 (29 Sep 2008)
%%abc-creator hum2abc beta
%%abcx-conversion-date 2020/08/10 20:56:09
%%abc-copyright Electronic Copyright 2000 David Huron
%%abc-edited-by David Huron
%%abcx-initial-encoding-date August 27, 2000
%%humdrum-veritas 1941820686
%%humdrum-veritas-data 4047670025
%%linebreak <none>
%%barnumbers 0
L: 1/8
M: 2/4
Q: 1/4=96
K: F clef=bass
F, F, F,3/ G,/ | 
F, F,F,2 | 
C2A, A, | 
A,2A, F, | 
G,2F, F, | 
F, F,F,2 | 
G,> F, F, G, | 
F,2F, z | 
F,2F, F, | 
F, F,F,2 | 
A,2F, F, | 
A,2A, F, | 
G,2F, F, | 
F, F,F,2 | 
A,> F, F, G, | 
F,2F, z | 
F,2F, F, | 
F, F,F,2 | 
A,2F, F, | 
A,2A, F,/ z/ | 
G,2G, F, | 
F, F,F,2 | 
G,> F, F, G, | 
F,2F, z | 
F,2F, F, | 
F, F,F,2 | 
C2A, A, | 
A,2A, F, | 
G,2F, F, | 
F, F,F,2 | 
G,> F, F, G, | 
F,2F, z | 
F,2F, F, | 
F, F,F,2 | 
A,2F, F, | 
A,2A, F, | 
G,2F, F, | 
F, F,F,2 | 
A,> F, F, G, | 
F,2F, z | 
F,2F, F, | 
F, F,F,2 | 
A,2F, F, | 
A,2A, F,/ z/ | 
G,2G, F, | 
F, F,F,2 | 
G,> F, F, G, | 
F,2F, z | 
F,2F, F, | 
F, F,F,2 |]  


